X:495
T: "Geheime Liebe"
N: Z1175
O: Europa, Mitteleuropa, Deutschland, Franken
R: Liebes - Lied
M: 2/4
L: 1/16
K: F
EC | F2F2G2G2 | A2G2F2
A2 | B2A2G2F2 | E4z2
E2 | F2F2G2G2 | A2G2F2
A2 | B2A2G2F2 | G4z2
C2 | C2C2C2E2 | F3FF2z2
G4G2G2 | c2c2c2
B2 | A2A2B2G2 | F4z2

